X:178
T: Gan niu
N: C1670
O: China, Henan, Lushi
S: IV, 169]
R: Wuge, Caicha]
M: 2/4
L: 1/16
K: G
B4B2A2 | B4B2A2 | B4B2A2 | G2G2E2G2
D4D2G2 | D4G4 | G4G2A2 | G2A2B2dB | A8- | A4B4- | B4A4
A2d2A4- | A4B4 | d8- | d8
d2e2d4- | d4B4- | B4Adz2
B4e4 | d8 | B6A2 | G2G4A2 | d8 | B6A2 | G8

